X:4962
T:Fairies, The
S:unknown, photocopy. No. 18 on p.11
I:speed 250
M:C
K:G
|:(3DEF | GFGA BdcB | AGAB G2 Bc | dgfg edcB | cedB A2 Bc |
dggf g2 (3gfe | dedc B2AG | ABcA dcAF | G2 GF G2:|
|: Bc dggf g2 (3gfe | dedc B2AG | ABcA edcB | Add^c d2B=c | 
dggf g2 (3gfe | dedc B2 AG | ABcA dcAF | G2 GF G2:|
